!!!OTL: Liting ge
!!!ARE: Asia, China,ÿGuangxi, Wuzhou
!! II, 523
!!!SCT: C1527
!!!YEM: Copyright 1995, estate of Helmut Schaffrath.
**kern
*ICvox
*Ivox
!! Mixed meters:  2/4; 3/4
*M2/4
*k[]
*C:
{4cc
8b
8a
=1
4.dd
8ee
=2
2dd}
=3
{4cc
8b
8a
=4
4dd
4dd
=5
4b
8b
8a
=6
4.g
8a
=7
2g}
=8
{4b
8dd
8a
=9
4g
4dd
=10
4a
4a
=11
4.g
8a
=12
2g}
=13
{4a
4b
=14
4dd
4dd
=15
4dd
8a
8g
=16
4.dd
8ee
=17
2dd}
=18
{4a
4b
=19
4dd
4dd
=20
4g
8b
8a
=21
4.g
8a
=22
2g}
=23
{4cc
8b
8a
=24
4dd
4dd
=25
4b
8b
8a
=26
4.g
8a
=27
2g}
=28
{4dd
4g
=29
4a
4dd
=30
4dd
8dd
8a
=31
4.g
8a
=32
2g}
=33
{4dd
4a
=34
4dd
4dd
=35
4b
8b
8a
=36
4.dd
8ee
=37
2dd}
=38
{4dd
4a
=39
4g
4dd
=40
4a
8dd
8a
=41
4.g
8a
=42
2g}
=43
{8cc
16b
16a
8dd
8dd
=44
*M3/4
8b
16b
16a
8.g
16a
4g}
=45
*M2/4
{8dd
8g
8a
8dd
=46
*M3/4
8dd
8a
8.g
16a
4g}
=47
*M2/4
{8dd
8b
8.a
16b
=48
*M3/4
8dd
16a
16g
8dd
8ee
4dd}
=49
*M2/4
{8dd
8a
8g
8dd
=50
*M3/4
8a
16dd
16a
8.g
16a
4g}
=51
*M2/4
{8cc
16b
16a
8dd
8dd
=52
*M3/4
8b
16b
16a
8.g
16a
4g}
=53
*M2/4
{8b
16a
16g
8dd
8dd
=54
*M3/4
8b
8a
8.g
16a
4g}
=55
*M2/4
{8b
8dd
8a
8g
=56
*M3/4
8b
16a
16g
8.dd
16ee
4dd}
=57
*M2/4
{8b
16a
16g
8dd
8dd
=58
8a
8a
8.g
16g
=59
8a
8a
[4g
=60
8.g]
16a
[4g
=61
4g]
4r}
=62
{8cc
16b
16a
8dd
8dd
=63
8b
16b
16a
8.g
16a
=64
2g}
=65
{4dd
8dd
8a
=66
8g
8a
4dd
=67
4b
4a
=68
4.g
8a
=69
2g}
=70
{4dd
4a
=71
4dd
4dd
=72
4b
8b
8g
=73
4.dd
8ee
=74
2dd}
=75
{4dd
4a
=76
4g
4dd
=77
4a
4a
=78
4.g
8a
=79
2g}
==
!!!AGN: Xiaodiao, Fengsuge, Baihua changtan
!!!AMT: irregular
!!!AIN: vox
!!!EED: Helmut Schaffrath
!!!EEV: 1.0
*-
!!!ONB: Tied note syntax fixed by Craig Sapp, 2004/05/03/
